X: 1
T: Lady Erskine's Strathspey
C: D.McLaren
R: strathspey
N: originally a reel
Z: 2006 converted by John Chambers <jc:trillian.mit.edu>
M: C
L: 1/8
K: Ador
E | "Am"A2  A>B c2 B>A | "G"B>d g>d B<G G>B | "Am"A2  A>B c>d e<a | "Em"g<e g>B "Am"A2 A :|
e | "Am"a>b a>g e<g a2 | "G"g>a g>e d<e g2  | "Am"a>b a>g "C"e<f g>e |  "G"dB "Am"A2 A ||
e | "Am"a>b a>g e<g a2 | "G"g>a g>e d<e g2  | "Am"a>a "Em"b>g "D"a<f "C"g>e |  "G"dB "Am"A2 A |]
